resources/haticons/SVG/storage.svg

<!-- Generated by IcoMoon.io -->
<svg version="1.1" xmlns="http://www.w3.org/2000/svg" width="24" height="24" viewBox="0 0 24 24">
<title>storage</title>
<path d="M3.984 11.016v1.969h2.016v-1.969h-2.016zM2.016 14.016v-4.031h19.969v4.031h-19.969zM6 6.984v-1.969h-2.016v1.969h2.016zM2.016 3.984h19.969v4.031h-19.969v-4.031zM3.984 17.016v1.969h2.016v-1.969h-2.016zM2.016 20.016v-4.031h19.969v4.031h-19.969z"></path>
</svg>

<svg xmlns="http://www.w3.org/2000/svg" width="24" height="24"><path d="M3.984 11.016v1.969H6v-1.969H3.984zm-1.968 3V9.985h19.969v4.031H2.016zM6 6.984V5.015H3.984v1.969H6zm-3.984-3h19.969v4.031H2.016V3.984zm1.968 13.032v1.969H6v-1.969H3.984zm-1.968 3v-4.031h19.969v4.031H2.016z"/></svg>
